_includes/icons/color-bar-chart.svg

<svg fill="#666" height="50" viewBox="0 0 48 48" width="50" xmlns="http://www.w3.org/2000/svg"><g fill="#00bcd4"><path d="m19 22h10v20h-10z"/><path d="m6 12h10v30h-10z"/><path d="m32 6h10v36h-10z"/></g></svg>

<svg xmlns="http://www.w3.org/2000/svg" viewBox="0 0 48 48" width="50" height="50" fill="#666"><g fill="#00bcd4"><path d="M 19 22 L 29 22 L 29 42 L 19 42 Z"/><path d="M 6 12 L 16 12 L 16 42 L 6 42 Z"/><path d="M 32 6 L 42 6 L 42 42 L 32 42 Z"/></g></svg>
